X: 339
T: A Roll Of The Dice
R: slip jig
M: 9/8
K: Dmajor
"D"Afe dAG F2A|"Em"GEF GBA "A"GFE|"D"Ade fge dAB|"A"cgf efd cAG|
"D"Afe dAG F2A|"Em"GEF GBA "A"GFE|"D"FGA def "Em"ged|"A"c2A ABG FGE:|
"D"F2d dAG F2A|"D"def "Em"gBd "A"cde|"A"Aaa ged c2e|"D"dcA "Em"GEF "A"GFE|
"D"F2d dAG F2A|"D"def "Em"gBd "A"cde|"D"fga "Em"ged "A"c2d|"A"eag efd cAG:|

